Newaita-dark/actions/32/compass.svg

<svg height="32" viewBox="0 0 32 32" width="32" xmlns="http://www.w3.org/2000/svg"><path d="m15.875 2.894531c-7.328125 0-13.230469 5.902344-13.230469 13.230469 0 7.332031 5.902344 13.230469 13.230469 13.230469 7.332031 0 13.230469-5.898438 13.230469-13.230469 0-7.328125-5.898438-13.230469-13.230469-13.230469zm0 2.648438c5.867188 0 10.585938 4.71875 10.585938 10.582031 0 5.867188-4.71875 10.585938-10.585938 10.585938-5.863281 0-10.582031-4.71875-10.582031-10.585938 0-5.863281 4.71875-10.582031 10.582031-10.582031zm0 0" fill="#e0e0e0"/><path d="m21.96875 10.027344c-.238281-.238282-.613281-.269532-.886719-.074219l-6.546875 4.675781c-.347656.246094-.386718.742188-.085937 1.042969l1.871093 1.871094c.296876.300781.796876.257812 1.042969-.085938l4.675781-6.546875c.195313-.273437.164063-.644531-.070312-.882812zm0 0" fill="#42a5f5"/><path d="m9.789062 22.207031c-.238281-.238281-.269531-.613281-.074218-.886719l4.675781-6.546874c.246094-.347657.746094-.386719 1.042969-.089844l1.871094 1.871094c.300781.300781.257812.796874-.085938 1.046874l-6.546875 4.675782c-.273437.195312-.644531.164062-.882813-.070313zm0 0" fill="#f44336"/><path d="m15.875 13.480469c1.464844 0 2.648438 1.183593 2.648438 2.644531 0 1.464844-1.183594 2.648438-2.648438 2.648438-1.460938 0-2.644531-1.183594-2.644531-2.648438 0-1.460938 1.183593-2.644531 2.644531-2.644531zm0 0" fill="#e0e0e0"/></svg>

<svg xmlns="http://www.w3.org/2000/svg" xmlns:xlink="http://www.w3.org/1999/xlink" width="32px" height="32px" viewBox="0 0 32 32" version="1.1">
<g id="surface1">
     <defs>
  <style id="current-color-scheme" type="text/css">
   .ColorScheme-Text { color:#eeeeee; } .ColorScheme-Highlight { color:#424242; }
  </style>
 </defs>
<path style="fill:currentColor" class="ColorScheme-Text" d="M 15.875 2.894531 C 8.546875 2.894531 2.644531 8.796875 2.644531 16.125 C 2.644531 23.457031 8.546875 29.355469 15.875 29.355469 C 23.207031 29.355469 29.105469 23.457031 29.105469 16.125 C 29.105469 8.796875 23.207031 2.894531 15.875 2.894531 Z M 15.875 5.542969 C 21.742188 5.542969 26.460938 10.261719 26.460938 16.125 C 26.460938 21.992188 21.742188 26.710938 15.875 26.710938 C 10.011719 26.710938 5.292969 21.992188 5.292969 16.125 C 5.292969 10.261719 10.011719 5.542969 15.875 5.542969 Z M 15.875 5.542969 "/>
<path style=" stroke:none;fill-rule:nonzero;fill:rgb(25.882354%,64.705884%,96.078432%);fill-opacity:1;" d="M 21.96875 10.027344 C 21.730469 9.789062 21.355469 9.757812 21.082031 9.953125 L 14.535156 14.628906 C 14.1875 14.875 14.148438 15.371094 14.449219 15.671875 L 16.320312 17.542969 C 16.617188 17.84375 17.117188 17.800781 17.363281 17.457031 L 22.039062 10.910156 C 22.234375 10.636719 22.203125 10.265625 21.96875 10.027344 Z M 21.96875 10.027344 "/>
<path style=" stroke:none;fill-rule:nonzero;fill:rgb(95.686275%,26.274511%,21.176471%);fill-opacity:1;" d="M 9.789062 22.207031 C 9.550781 21.96875 9.519531 21.59375 9.714844 21.320312 L 14.390625 14.773438 C 14.636719 14.425781 15.136719 14.386719 15.433594 14.683594 L 17.304688 16.554688 C 17.605469 16.855469 17.5625 17.351562 17.21875 17.601562 L 10.671875 22.277344 C 10.398438 22.472656 10.027344 22.441406 9.789062 22.207031 Z M 9.789062 22.207031 "/>
     <defs>
  <style id="current-color-scheme" type="text/css">
   .ColorScheme-Text { color:#eeeeee; } .ColorScheme-Highlight { color:#424242; }
  </style>
 </defs>
<path style="fill:currentColor" class="ColorScheme-Text" d="M 15.875 13.480469 C 17.339844 13.480469 18.523438 14.664062 18.523438 16.125 C 18.523438 17.589844 17.339844 18.773438 15.875 18.773438 C 14.414062 18.773438 13.230469 17.589844 13.230469 16.125 C 13.230469 14.664062 14.414062 13.480469 15.875 13.480469 Z M 15.875 13.480469 "/>
</g>
</svg>
